; G-Code generated by Simplify3D(R) Version 4.0.0
; Nov 25, 2017 at 6:22:00 PM
; Settings Summary
;   processName,Process1
;   applyToModels,test1
;   profileName,BIQU
;   profileVersion,2017-11-25 15:47:24
;   baseProfile,Default
;   printMaterial,PLA
;   printQuality,Medium
;   printExtruders,
;   extruderName,Extruder 1
;   extruderToolheadNumber,0
;   extruderDiameter,0.4
;   extruderAutoWidth,0
;   extruderWidth,0.4
;   extrusionMultiplier,1.5
;   extruderUseRetract,1
;   extruderRetractionDistance,1
;   extruderExtraRestartDistance,0
;   extruderRetractionZLift,0
;   extruderRetractionSpeed,1800
;   extruderUseCoasting,0
;   extruderCoastingDistance,0.2
;   extruderUseWipe,0
;   extruderWipeDistance,5
;   primaryExtruder,0
;   layerHeight,0.2
;   topSolidLayers,3
;   bottomSolidLayers,3
;   perimeterOutlines,2
;   printPerimetersInsideOut,1
;   startPointOption,2
;   startPointOriginX,0
;   startPointOriginY,0
;   sequentialIslands,0
;   spiralVaseMode,0
;   firstLayerHeightPercentage,90
;   firstLayerWidthPercentage,100
;   firstLayerUnderspeed,0.2
;   useRaft,0
;   raftExtruder,0
;   raftTopLayers,2
;   raftBaseLayers,2
;   raftOffset,3
;   raftSeparationDistance,0.14
;   raftTopInfill,100
;   aboveRaftSpeedMultiplier,0.3
;   useSkirt,0
;   skirtExtruder,999
;   skirtLayers,1
;   skirtOutlines,3
;   skirtOffset,4
;   usePrimePillar,0
;   primePillarExtruder,999
;   primePillarWidth,12
;   primePillarLocation,7
;   primePillarSpeedMultiplier,1
;   useOozeShield,0
;   oozeShieldExtruder,999
;   oozeShieldOffset,2
;   oozeShieldOutlines,1
;   oozeShieldSidewallShape,1
;   oozeShieldSidewallAngle,30
;   oozeShieldSpeedMultiplier,1
;   infillExtruder,0
;   internalInfillPattern,Rectilinear
;   externalInfillPattern,Rectilinear
;   infillPercentage,0
;   outlineOverlapPercentage,15
;   infillExtrusionWidthPercentage,100
;   minInfillLength,5
;   infillLayerInterval,1
;   internalInfillAngles,45,-45
;   overlapInternalInfillAngles,0
;   externalInfillAngles,45,-45
;   generateSupport,0
;   supportExtruder,0
;   supportInfillPercentage,30
;   supportExtraInflation,0
;   supportBaseLayers,0
;   denseSupportExtruder,0
;   denseSupportLayers,0
;   denseSupportInfillPercentage,70
;   supportLayerInterval,1
;   supportHorizontalPartOffset,0.3
;   supportUpperSeparationLayers,1
;   supportLowerSeparationLayers,1
;   supportType,0
;   supportGridSpacing,4
;   maxOverhangAngle,89
;   supportAngles,0
;   temperatureName,Extruder 1
;   temperatureNumber,0
;   temperatureSetpointCount,1
;   temperatureSetpointLayers,1
;   temperatureSetpointTemperatures,180
;   temperatureStabilizeAtStartup,1
;   temperatureHeatedBed,0
;   temperatureRelayBetweenLayers,0
;   temperatureRelayBetweenLoops,0
;   fanLayers,1,2
;   fanSpeeds,0,100
;   blipFanToFullPower,0
;   adjustSpeedForCooling,1
;   minSpeedLayerTime,15
;   minCoolingSpeedSlowdown,20
;   increaseFanForCooling,0
;   minFanLayerTime,45
;   maxCoolingFanSpeed,100
;   increaseFanForBridging,0
;   bridgingFanSpeed,100
;   use5D,1
;   relativeEdistances,0
;   allowEaxisZeroing,1
;   independentExtruderAxes,0
;   includeM10123,0
;   stickySupport,1
;   applyToolheadOffsets,0
;   gcodeXoffset,0
;   gcodeYoffset,0
;   gcodeZoffset,0
;   overrideMachineDefinition,1
;   machineTypeOverride,1
;   strokeXoverride,250
;   strokeYoverride,250
;   strokeZoverride,380
;   originOffsetXoverride,125
;   originOffsetYoverride,125
;   originOffsetZoverride,0
;   homeXdirOverride,0
;   homeYdirOverride,0
;   homeZdirOverride,1
;   flipXoverride,1
;   flipYoverride,-1
;   flipZoverride,1
;   toolheadOffsets,0,0|0,0|0,0|0,0|0,0|0,0
;   overrideFirmwareConfiguration,1
;   firmwareTypeOverride,RepRap (Marlin/Repetier/Sprinter)
;   GPXconfigOverride,r2
;   baudRateOverride,115200
;   overridePrinterModels,0
;   printerModelsOverride
;   startingGcode,G28 ; home all axes
;   layerChangeGcode,
;   retractionGcode,
;   toolChangeGcode,
;   endingGcode,M104 S0 ; turn off extruder,M140 S0 ; turn off bed,G28,M84 ; disable motors,
;   exportFileFormat,gcode
;   celebration,0
;   celebrationSong,Random Song
;   postProcessing,
;   defaultSpeed,3000
;   outlineUnderspeed,0.4
;   solidInfillUnderspeed,0.4
;   supportUnderspeed,0.8
;   rapidXYspeed,4800
;   rapidZspeed,1000
;   minBridgingArea,50
;   bridgingExtraInflation,0
;   bridgingExtrusionMultiplier,1
;   bridgingSpeedMultiplier,1
;   useFixedBridgingAngle,0
;   fixedBridgingAngle,0
;   applyBridgingToPerimeters,0
;   filamentDiameters,1.75|1.75|1.75|1.75|1.75|1.75
;   filamentPricesPerKg,46|46|46|46|46|46
;   filamentDensities,1.25|1.25|1.25|1.25|1.25|1.25
;   useMinPrintHeight,0
;   minPrintHeight,0
;   useMaxPrintHeight,0
;   maxPrintHeight,0
;   useDiaphragm,0
;   diaphragmLayerInterval,20
;   robustSlicing,1
;   mergeAllIntoSolid,0
;   onlyRetractWhenCrossingOutline,1
;   retractBetweenLayers,1
;   useRetractionMinTravel,0
;   retractionMinTravel,3
;   retractWhileWiping,0
;   onlyWipeOutlines,1
;   avoidCrossingOutline,1
;   maxMovementDetourFactor,100
;   toolChangeRetractionDistance,12
;   toolChangeExtraRestartDistance,-0.5
;   toolChangeRetractionSpeed,600
;   externalThinWallType,0
;   internalThinWallType,0
;   thinWallAllowedOverlapPercentage,10
;   singleExtrusionMinLength,1
;   singleExtrusionMinPrintingWidthPercentage,50
;   singleExtrusionMaxPrintingWidthPercentage,200
;   singleExtrusionEndpointExtension,0.2
;   horizontalSizeCompensation,0
G90
M82
M106 S0
M104 S180 T0
M109 S180 T0
G28 ; home all axes
G92 E0
G1 E-1.0000 F1800
G1 Z7.780 F1000
; process Process1
; layer 1, Z = 0.180
; layer 2, Z = 0.380
M106 S255
; layer 3, Z = 0.580
; layer 4, Z = 0.780
; layer 5, Z = 0.980
; layer 6, Z = 1.180
; layer 7, Z = 1.380
; layer 8, Z = 1.580
; layer 9, Z = 1.780
; layer 10, Z = 1.980
; layer 11, Z = 2.180
; layer 12, Z = 2.380
; layer 13, Z = 2.580
; layer 14, Z = 2.780
; layer 15, Z = 2.980
; layer 16, Z = 3.180
; layer 17, Z = 3.380
; layer 18, Z = 3.580
; layer 19, Z = 3.780
; layer 20, Z = 3.980
; layer 21, Z = 4.180
; layer 22, Z = 4.380
; layer 23, Z = 4.580
; layer 24, Z = 4.780
; layer 25, Z = 4.980
; layer 26, Z = 5.180
; layer 27, Z = 5.380
; layer 28, Z = 5.580
; layer 29, Z = 5.780
; layer 30, Z = 5.980
; layer 31, Z = 6.180
; layer 32, Z = 6.380
; layer 33, Z = 6.580
; layer 34, Z = 6.780
; layer 35, Z = 6.980
; layer 36, Z = 7.180
; layer 37, Z = 7.380
; layer 38, Z = 7.580
; layer 39, Z = 7.780
T0
; tool H0.200 W0.400
; inner perimeter
G1 X-0.600 Y-0.600 F4800
G1 E0.0000 F540
G92 E0
G1 X-11.900 Y-0.600 E0.5638 F1367
G1 X-11.900 Y-11.900 E1.1275
G1 X-0.600 Y-11.900 E1.6913
G1 X-0.600 Y-0.600 E2.2550
; outer perimeter
G1 X-0.200 Y-0.200 F4800
G92 E0
G1 X-12.300 Y-0.200 E0.6037 F781
G1 X-12.300 Y-12.300 E1.2073
G1 X-0.200 Y-12.300 E1.8110
G1 X-0.200 Y-0.200 E2.4147
; bridge
G1 X-11.453 Y-0.940 F4800
G92 E0
G1 X-11.560 Y-1.002 E0.0062 F1953
G1 X-11.560 Y-1.464 E0.0292
G1 X-10.653 Y-0.940 E0.0815
G1 X-9.853 Y-0.940 E0.1214
G1 X-11.560 Y-1.926 E0.2197
G1 X-11.560 Y-2.388 E0.2428
G1 X-9.053 Y-0.940 E0.3872
G1 X-8.253 Y-0.940 E0.4271
G1 X-11.560 Y-2.849 E0.6177
G1 X-11.560 Y-3.311 E0.6407
G1 X-7.453 Y-0.940 E0.8773
G1 X-6.653 Y-0.940 E0.9172
G1 X-11.560 Y-3.773 E1.1999
G1 X-11.560 Y-4.235 E1.2230
G1 X-5.853 Y-0.940 E1.5517
G1 X-5.053 Y-0.940 E1.5916
G1 X-11.560 Y-4.697 E1.9665
G1 X-11.560 Y-5.159 E1.9896
G1 X-4.253 Y-0.940 E2.4105
G1 X-3.453 Y-0.940 E2.4504
G1 X-11.560 Y-5.621 E2.9175
G1 X-11.560 Y-6.083 E2.9405
G1 X-2.653 Y-0.940 E3.4536
G1 X-1.853 Y-0.940 E3.4936
G1 X-11.560 Y-6.544 E4.0528
G1 X-11.560 Y-7.006 E4.0758
G1 X-1.053 Y-0.940 E4.6811
G1 X-0.940 Y-0.940 E4.6867
G1 X-0.940 Y-1.337 E4.7065
G1 X-11.560 Y-7.468 E5.3183
G1 X-11.560 Y-7.930 E5.3414
G1 X-0.940 Y-1.799 E5.9532
G1 X-0.940 Y-2.261 E5.9762
G1 X-11.560 Y-8.392 E6.5880
G1 X-11.560 Y-8.854 E6.6111
G1 X-0.940 Y-2.722 E7.2229
G1 X-0.940 Y-3.184 E7.2459
G1 X-11.560 Y-9.316 E7.8577
G1 X-11.560 Y-9.778 E7.8807
G1 X-0.940 Y-3.646 E8.4925
G1 X-0.940 Y-4.108 E8.5156
G1 X-11.560 Y-10.239 E9.1274
G1 X-11.560 Y-10.701 E9.1504
G1 X-0.940 Y-4.570 E9.7622
G1 X-0.940 Y-5.032 E9.7853
G1 X-11.560 Y-11.163 E10.3971
G1 X-11.560 Y-11.560 E10.4169
G1 X-11.447 Y-11.560 E10.4225
G1 X-0.940 Y-5.494 E11.0278
G1 X-0.940 Y-5.956 E11.0508
G1 X-10.647 Y-11.560 E11.6101
G1 X-9.847 Y-11.560 E11.6500
G1 X-0.940 Y-6.417 E12.1631
G1 X-0.940 Y-6.879 E12.1861
G1 X-9.047 Y-11.560 E12.6532
G1 X-8.247 Y-11.560 E12.6931
G1 X-0.940 Y-7.341 E13.1140
G1 X-0.940 Y-7.803 E13.1371
G1 X-7.447 Y-11.560 E13.5120
G1 X-6.647 Y-11.560 E13.5519
G1 X-0.940 Y-8.265 E13.8806
G1 X-0.940 Y-8.727 E13.9037
G1 X-5.847 Y-11.560 E14.1864
G1 X-5.047 Y-11.560 E14.2263
G1 X-0.940 Y-9.189 E14.4629
G1 X-0.940 Y-9.651 E14.4859
G1 X-4.247 Y-11.560 E14.6765
G1 X-3.447 Y-11.560 E14.7164
G1 X-0.940 Y-10.112 E14.8608
G1 X-0.940 Y-10.574 E14.8839
G1 X-2.647 Y-11.560 E14.9822
G1 X-1.847 Y-11.560 E15.0221
G1 X-0.940 Y-11.036 E15.0744
G1 X-0.940 Y-11.498 E15.0974
G1 X-1.047 Y-11.560 E15.1036
G92 E0
G1 E-1.0000 F1800
; layer 40, Z = 7.980
; inner perimeter
G1 X-0.600 Y-11.900 F4800
G1 Z7.980 F1000
G1 E0.0000 F1800
G92 E0
G1 X-0.600 Y-0.600 E0.5638 F2100
G1 X-11.900 Y-0.600 E1.1275
G1 X-11.900 Y-11.900 E1.6913
G1 X-0.600 Y-11.900 E2.2550
; outer perimeter
G1 X-0.200 Y-12.300 F4800
G92 E0
G1 X-0.200 Y-0.200 E0.6037 F1200
G1 X-12.300 Y-0.200 E1.2073
G1 X-12.300 Y-12.300 E1.8110
G1 X-0.200 Y-12.300 E2.4147
; solid layer
G1 X-0.940 Y-1.378 F4800
G92 E0
G1 X-1.378 Y-0.940 E0.0309 F1200
G1 X-1.943 Y-0.940 E0.0591
G1 X-0.940 Y-1.943 E0.1299
G1 X-0.940 Y-2.509 E0.1581
G1 X-2.509 Y-0.940 E0.2688
G1 X-3.075 Y-0.940 E0.2970
G1 X-0.940 Y-3.075 E0.4476
G1 X-0.940 Y-3.640 E0.4759
G1 X-3.640 Y-0.940 E0.6664
G1 X-4.206 Y-0.940 E0.6946
G1 X-0.940 Y-4.206 E0.9251
G1 X-0.940 Y-4.772 E0.9533
G1 X-4.772 Y-0.940 E1.2236
G1 X-5.337 Y-0.940 E1.2518
G1 X-0.940 Y-5.337 E1.5621
G1 X-0.940 Y-5.903 E1.5903
G1 X-5.903 Y-0.940 E1.9405
G1 X-6.469 Y-0.940 E1.9687
G1 X-0.940 Y-6.469 E2.3588
G1 X-0.940 Y-7.034 E2.3870
G1 X-7.034 Y-0.940 E2.8170
G1 X-7.600 Y-0.940 E2.8453
G1 X-0.940 Y-7.600 E3.3152
G1 X-0.940 Y-8.166 E3.3434
G1 X-8.166 Y-0.940 E3.8532
G1 X-8.732 Y-0.940 E3.8814
G1 X-0.940 Y-8.732 E4.4312
G1 X-0.940 Y-9.297 E4.4594
G1 X-9.297 Y-0.940 E5.0490
G1 X-9.863 Y-0.940 E5.0773
G1 X-0.940 Y-9.863 E5.7068
G1 X-0.940 Y-10.429 E5.7350
G1 X-10.429 Y-0.940 E6.4045
G1 X-10.994 Y-0.940 E6.4327
G1 X-0.940 Y-10.994 E7.1421
G1 X-0.940 Y-11.560 E7.1703
G1 X-11.560 Y-0.940 E7.9196
G1 X-11.560 Y-1.506 E7.9479
G1 X-1.506 Y-11.560 E8.6573
G1 X-2.071 Y-11.560 E8.6855
G1 X-11.560 Y-2.071 E9.3550
G1 X-11.560 Y-2.637 E9.3832
G1 X-2.637 Y-11.560 E10.0127
G1 X-3.203 Y-11.560 E10.0410
G1 X-11.560 Y-3.203 E10.6306
G1 X-11.560 Y-3.768 E10.6588
G1 X-3.768 Y-11.560 E11.2086
G1 X-4.334 Y-11.560 E11.2368
G1 X-11.560 Y-4.334 E11.7466
G1 X-11.560 Y-4.900 E11.7748
G1 X-4.900 Y-11.560 E12.2448
G1 X-5.465 Y-11.560 E12.2730
G1 X-11.560 Y-5.465 E12.7030
G1 X-11.560 Y-6.031 E12.7312
G1 X-6.031 Y-11.560 E13.1213
G1 X-6.597 Y-11.560 E13.1495
G1 X-11.560 Y-6.597 E13.4997
G1 X-11.560 Y-7.163 E13.5279
G1 X-7.163 Y-11.560 E13.8382
G1 X-7.728 Y-11.560 E13.8664
G1 X-11.560 Y-7.728 E14.1368
G1 X-11.560 Y-8.294 E14.1650
G1 X-8.294 Y-11.560 E14.3954
G1 X-8.860 Y-11.560 E14.4237
G1 X-11.560 Y-8.860 E14.6142
G1 X-11.560 Y-9.425 E14.6424
G1 X-9.425 Y-11.560 E14.7930
G1 X-9.991 Y-11.560 E14.8212
G1 X-11.560 Y-9.991 E14.9320
G1 X-11.560 Y-10.557 E14.9602
G1 X-10.557 Y-11.560 E15.0310
G1 X-11.122 Y-11.560 E15.0592
G1 X-11.560 Y-11.122 E15.0901
G92 E0
G1 E-1.0000 F1800
; layer 41, Z = 8.180
; inner perimeter
G1 X-11.900 Y-11.900 F4800
G1 Z8.180 F1000
G1 E0.0000 F1800
G92 E0
G1 X-0.600 Y-11.900 E0.5638 F2100
G1 X-0.600 Y-0.600 E1.1275
G1 X-11.900 Y-0.600 E1.6913
G1 X-11.900 Y-11.900 E2.2550
; outer perimeter
G1 X-12.300 Y-12.300 F4800
G92 E0
G1 X-0.200 Y-12.300 E0.6037 F1200
G1 X-0.200 Y-0.200 E1.2073
G1 X-12.300 Y-0.200 E1.8110
G1 X-12.300 Y-12.300 E2.4147
; solid layer
G1 X-1.378 Y-11.560 F4800
G92 E0
G1 X-0.940 Y-11.122 E0.0309 F1200
G1 X-0.940 Y-10.557 E0.0591
G1 X-1.943 Y-11.560 E0.1299
G1 X-2.509 Y-11.560 E0.1581
G1 X-0.940 Y-9.991 E0.2688
G1 X-0.940 Y-9.425 E0.2970
G1 X-3.075 Y-11.560 E0.4477
G1 X-3.640 Y-11.560 E0.4759
G1 X-0.940 Y-8.860 E0.6664
G1 X-0.940 Y-8.294 E0.6946
G1 X-4.206 Y-11.560 E0.9251
G1 X-4.772 Y-11.560 E0.9533
G1 X-0.940 Y-7.728 E1.2236
G1 X-0.940 Y-7.163 E1.2519
G1 X-5.337 Y-11.560 E1.5621
G1 X-5.903 Y-11.560 E1.5903
G1 X-0.940 Y-6.597 E1.9405
G1 X-0.940 Y-6.031 E1.9687
G1 X-6.469 Y-11.560 E2.3588
G1 X-7.035 Y-11.560 E2.3871
G1 X-0.940 Y-5.465 E2.8171
G1 X-0.940 Y-4.900 E2.8453
G1 X-7.600 Y-11.560 E3.3152
G1 X-8.166 Y-11.560 E3.3434
G1 X-0.940 Y-4.334 E3.8532
G1 X-0.940 Y-3.768 E3.8815
G1 X-8.732 Y-11.560 E4.4312
G1 X-9.297 Y-11.560 E4.4594
G1 X-0.940 Y-3.203 E5.0491
G1 X-0.940 Y-2.637 E5.0773
G1 X-9.863 Y-11.560 E5.7068
G1 X-10.429 Y-11.560 E5.7351
G1 X-0.940 Y-2.071 E6.4045
G1 X-0.940 Y-1.506 E6.4328
G1 X-10.994 Y-11.560 E7.1422
G1 X-11.560 Y-11.560 E7.1704
G1 X-0.940 Y-0.940 E7.9197
G1 X-1.506 Y-0.940 E7.9479
G1 X-11.560 Y-10.994 E8.6573
G1 X-11.560 Y-10.429 E8.6855
G1 X-2.071 Y-0.940 E9.3550
G1 X-2.637 Y-0.940 E9.3832
G1 X-11.560 Y-9.863 E10.0128
G1 X-11.560 Y-9.297 E10.0410
G1 X-3.203 Y-0.940 E10.6306
G1 X-3.768 Y-0.940 E10.6589
G1 X-11.560 Y-8.732 E11.2086
G1 X-11.560 Y-8.166 E11.2368
G1 X-4.334 Y-0.940 E11.7466
G1 X-4.900 Y-0.940 E11.7749
G1 X-11.560 Y-7.600 E12.2448
G1 X-11.560 Y-7.035 E12.2730
G1 X-5.465 Y-0.940 E12.7030
G1 X-6.031 Y-0.940 E12.7312
G1 X-11.560 Y-6.469 E13.1213
G1 X-11.560 Y-5.903 E13.1495
G1 X-6.597 Y-0.940 E13.4997
G1 X-7.163 Y-0.940 E13.5279
G1 X-11.560 Y-5.337 E13.8382
G1 X-11.560 Y-4.772 E13.8664
G1 X-7.728 Y-0.940 E14.1368
G1 X-8.294 Y-0.940 E14.1650
G1 X-11.560 Y-4.206 E14.3954
G1 X-11.560 Y-3.640 E14.4237
G1 X-8.860 Y-0.940 E14.6142
G1 X-9.425 Y-0.940 E14.6424
G1 X-11.560 Y-3.075 E14.7930
G1 X-11.560 Y-2.509 E14.8213
G1 X-9.991 Y-0.940 E14.9320
G1 X-10.557 Y-0.940 E14.9602
G1 X-11.560 Y-1.943 E15.0310
G1 X-11.560 Y-1.378 E15.0592
G1 X-11.122 Y-0.940 E15.0901
G92 E0
G1 E-1.0000 F1800
; layer 42, Z = 8.380
; inner perimeter
G1 X-11.900 Y-0.600 F4800
G1 Z8.380 F1000
G1 E0.0000 F1800
G92 E0
G1 X-11.900 Y-11.900 E0.5638 F520
G1 X-0.600 Y-11.900 E1.1275
G1 X-0.600 Y-0.600 E1.6913
G1 X-11.900 Y-0.600 E2.2550
; outer perimeter
G1 X-12.300 Y-0.200 F4800
G92 E0
G1 X-12.300 Y-12.300 E0.6037 F297
G1 X-0.200 Y-12.300 E1.2073
G1 X-0.200 Y-0.200 E1.8110
G1 X-12.300 Y-0.200 E2.4147
G92 E0
G1 E-1.0000 F1800
; layer 43, Z = 8.580
; inner perimeter
G1 X-11.900 Y-0.600 F4800
G1 Z8.580 F1000
G1 E0.0000 F1800
G92 E0
G1 X-11.900 Y-11.900 E0.5638 F520
G1 X-0.600 Y-11.900 E1.1275
G1 X-0.600 Y-0.600 E1.6913
G1 X-11.900 Y-0.600 E2.2550
; outer perimeter
G1 X-12.300 Y-0.200 F4800
G92 E0
G1 X-12.300 Y-12.300 E0.6037 F297
G1 X-0.200 Y-12.300 E1.2073
G1 X-0.200 Y-0.200 E1.8110
G1 X-12.300 Y-0.200 E2.4147
G92 E0
G1 E-1.0000 F1800
; layer 44, Z = 8.780
; inner perimeter
G1 X-11.900 Y-0.600 F4800
G1 Z8.780 F1000
G1 E0.0000 F1800
G92 E0
G1 X-11.900 Y-11.900 E0.5638 F520
G1 X-0.600 Y-11.900 E1.1275
G1 X-0.600 Y-0.600 E1.6913
G1 X-11.900 Y-0.600 E2.2550
; outer perimeter
G1 X-12.300 Y-0.200 F4800
G92 E0
G1 X-12.300 Y-12.300 E0.6037 F297
G1 X-0.200 Y-12.300 E1.2073
G1 X-0.200 Y-0.200 E1.8110
G1 X-12.300 Y-0.200 E2.4147
G92 E0
G1 E-1.0000 F1800
; layer 45, Z = 8.980
; inner perimeter
G1 X-11.900 Y-0.600 F4800
G1 Z8.980 F1000
G1 E0.0000 F1800
G92 E0
G1 X-11.900 Y-11.900 E0.5638 F520
G1 X-0.600 Y-11.900 E1.1275
G1 X-0.600 Y-0.600 E1.6913
G1 X-11.900 Y-0.600 E2.2550
; outer perimeter
G1 X-12.300 Y-0.200 F4800
G92 E0
G1 X-12.300 Y-12.300 E0.6037 F297
G1 X-0.200 Y-12.300 E1.2073
G1 X-0.200 Y-0.200 E1.8110
G1 X-12.300 Y-0.200 E2.4147
G92 E0
G1 E-1.0000 F1800
; layer 46, Z = 9.180
; inner perimeter
G1 X-11.900 Y-0.600 F4800
G1 Z9.180 F1000
G1 E0.0000 F1800
G92 E0
G1 X-11.900 Y-11.900 E0.5638 F520
G1 X-0.600 Y-11.900 E1.1275
G1 X-0.600 Y-0.600 E1.6913
G1 X-11.900 Y-0.600 E2.2550
; outer perimeter
G1 X-12.300 Y-0.200 F4800
G92 E0
G1 X-12.300 Y-12.300 E0.6037 F297
G1 X-0.200 Y-12.300 E1.2073
