; G-Code generated by Simplify3D(R) Version 4.0.0
; Nov 13, 2017 at 4:21:49 PM
; Settings Summary
;   processName,Process1
;   applyToModels,testBase
;   profileName,BIQU (modified)
;   profileVersion,2017-11-08 23:17:35
;   baseProfile,Default
;   printMaterial,PLA
;   printQuality,Medium
;   printExtruders,
;   extruderName,Extruder 1
;   extruderToolheadNumber,0
;   extruderDiameter,0.4
;   extruderAutoWidth,0
;   extruderWidth,0.4
;   extrusionMultiplier,1.5
;   extruderUseRetract,1
;   extruderRetractionDistance,1
;   extruderExtraRestartDistance,0
;   extruderRetractionZLift,0
;   extruderRetractionSpeed,1800
;   extruderUseCoasting,0
;   extruderCoastingDistance,0.2
;   extruderUseWipe,0
;   extruderWipeDistance,5
;   primaryExtruder,0
;   layerHeight,0.2
;   topSolidLayers,3
;   bottomSolidLayers,3
;   perimeterOutlines,2
;   printPerimetersInsideOut,1
;   startPointOption,2
;   startPointOriginX,0
;   startPointOriginY,0
;   sequentialIslands,0
;   spiralVaseMode,0
;   firstLayerHeightPercentage,90
;   firstLayerWidthPercentage,100
;   firstLayerUnderspeed,0.2
;   useRaft,0
;   raftExtruder,0
;   raftTopLayers,2
;   raftBaseLayers,2
;   raftOffset,3
;   raftSeparationDistance,0.14
;   raftTopInfill,100
;   aboveRaftSpeedMultiplier,0.3
;   useSkirt,0
;   skirtExtruder,999
;   skirtLayers,1
;   skirtOutlines,3
;   skirtOffset,4
;   usePrimePillar,0
;   primePillarExtruder,999
;   primePillarWidth,12
;   primePillarLocation,7
;   primePillarSpeedMultiplier,1
;   useOozeShield,0
;   oozeShieldExtruder,999
;   oozeShieldOffset,2
;   oozeShieldOutlines,1
;   oozeShieldSidewallShape,1
;   oozeShieldSidewallAngle,30
;   oozeShieldSpeedMultiplier,1
;   infillExtruder,0
;   internalInfillPattern,Rectilinear
;   externalInfillPattern,Rectilinear
;   infillPercentage,0
;   outlineOverlapPercentage,15
;   infillExtrusionWidthPercentage,100
;   minInfillLength,5
;   infillLayerInterval,1
;   internalInfillAngles,45,-45
;   overlapInternalInfillAngles,0
;   externalInfillAngles,45,-45
;   generateSupport,0
;   supportExtruder,0
;   supportInfillPercentage,30
;   supportExtraInflation,0
;   supportBaseLayers,0
;   denseSupportExtruder,0
;   denseSupportLayers,0
;   denseSupportInfillPercentage,70
;   supportLayerInterval,1
;   supportHorizontalPartOffset,0.3
;   supportUpperSeparationLayers,1
;   supportLowerSeparationLayers,1
;   supportType,0
;   supportGridSpacing,4
;   maxOverhangAngle,89
;   supportAngles,0
;   temperatureName,Extruder 1
;   temperatureNumber,0
;   temperatureSetpointCount,1
;   temperatureSetpointLayers,1
;   temperatureSetpointTemperatures,210
;   temperatureStabilizeAtStartup,1
;   temperatureHeatedBed,0
;   temperatureRelayBetweenLayers,0
;   temperatureRelayBetweenLoops,0
;   fanLayers,1,2
;   fanSpeeds,0,100
;   blipFanToFullPower,0
;   adjustSpeedForCooling,1
;   minSpeedLayerTime,15
;   minCoolingSpeedSlowdown,20
;   increaseFanForCooling,0
;   minFanLayerTime,45
;   maxCoolingFanSpeed,100
;   increaseFanForBridging,0
;   bridgingFanSpeed,100
;   use5D,1
;   relativeEdistances,0
;   allowEaxisZeroing,1
;   independentExtruderAxes,0
;   includeM10123,0
;   stickySupport,1
;   applyToolheadOffsets,0
;   gcodeXoffset,0
;   gcodeYoffset,0
;   gcodeZoffset,0
;   overrideMachineDefinition,1
;   machineTypeOverride,1
;   strokeXoverride,250
;   strokeYoverride,250
;   strokeZoverride,380
;   originOffsetXoverride,125
;   originOffsetYoverride,125
;   originOffsetZoverride,0
;   homeXdirOverride,0
;   homeYdirOverride,0
;   homeZdirOverride,1
;   flipXoverride,1
;   flipYoverride,-1
;   flipZoverride,1
;   toolheadOffsets,0,0|0,0|0,0|0,0|0,0|0,0
;   overrideFirmwareConfiguration,1
;   firmwareTypeOverride,RepRap (Marlin/Repetier/Sprinter)
;   GPXconfigOverride,r2
;   baudRateOverride,115200
;   overridePrinterModels,0
;   printerModelsOverride
;   startingGcode,G28 ; home all axes
;   layerChangeGcode,
;   retractionGcode,
;   toolChangeGcode,
;   endingGcode,M104 S0 ; turn off extruder,M140 S0 ; turn off bed,G28,M84 ; disable motors,
;   exportFileFormat,gcode
;   celebration,0
;   celebrationSong,Random Song
;   postProcessing,
;   defaultSpeed,3000
;   outlineUnderspeed,0.4
;   solidInfillUnderspeed,0.4
;   supportUnderspeed,0.8
;   rapidXYspeed,4800
;   rapidZspeed,1000
;   minBridgingArea,50
;   bridgingExtraInflation,0
;   bridgingExtrusionMultiplier,1
;   bridgingSpeedMultiplier,1
;   useFixedBridgingAngle,0
;   fixedBridgingAngle,0
;   applyBridgingToPerimeters,0
;   filamentDiameters,1.75|1.75|1.75|1.75|1.75|1.75
;   filamentPricesPerKg,46|46|46|46|46|46
;   filamentDensities,1.25|1.25|1.25|1.25|1.25|1.25
;   useMinPrintHeight,0
;   minPrintHeight,0
;   useMaxPrintHeight,0
;   maxPrintHeight,0
;   useDiaphragm,0
;   diaphragmLayerInterval,20
;   robustSlicing,1
;   mergeAllIntoSolid,0
;   onlyRetractWhenCrossingOutline,1
;   retractBetweenLayers,1
;   useRetractionMinTravel,0
;   retractionMinTravel,3
;   retractWhileWiping,0
;   onlyWipeOutlines,1
;   avoidCrossingOutline,1
;   maxMovementDetourFactor,100
;   toolChangeRetractionDistance,12
;   toolChangeExtraRestartDistance,-0.5
;   toolChangeRetractionSpeed,600
;   externalThinWallType,0
;   internalThinWallType,0
;   thinWallAllowedOverlapPercentage,10
;   singleExtrusionMinLength,1
;   singleExtrusionMinPrintingWidthPercentage,50
;   singleExtrusionMaxPrintingWidthPercentage,200
;   singleExtrusionEndpointExtension,0.2
;   horizontalSizeCompensation,0
G90
M82
M106 S0
M104 S210 T0
M109 S210 T0
G28 ; home all axes
G92 E0
G1 E-1.0000 F1800
G1 Z2.780 F1000
; process Process1
; layer 1, Z = 0.180
; layer 2, Z = 0.380
M106 S255
; layer 3, Z = 0.580
; layer 4, Z = 0.780
; layer 5, Z = 0.980
; layer 6, Z = 1.180
; layer 7, Z = 1.380
; layer 8, Z = 1.580
; layer 9, Z = 1.780
; layer 10, Z = 1.980
; layer 11, Z = 2.180
; layer 12, Z = 2.380
; layer 13, Z = 2.580
; layer 14, Z = 2.780
T0
; tool H0.200 W0.400
; inner perimeter
G1 X19.400 Y9.400 F4800
G1 E0.0000 F540
G92 E0
G1 X-19.400 Y9.400 E1.9357 F2100
G1 X-19.400 Y-9.400 E2.8737
G1 X19.400 Y-9.400 E4.8094
G1 X19.400 Y9.400 E5.7474
; outer perimeter
G1 X19.800 Y9.800 F4800
G92 E0
G1 X-19.800 Y9.800 E1.9757 F1200
G1 X-19.800 Y-9.800 E2.9535
G1 X19.800 Y-9.800 E4.9292
G1 X19.800 Y9.800 E5.9070
; bridge
G1 X19.060 Y7.687 F4800
G92 E0
G1 X18.692 Y9.060 E0.0709 F3000
G1 X18.278 Y9.060 E0.0916
G1 X19.060 Y6.141 E0.2423
G1 X19.060 Y4.596 E0.3194
G1 X17.864 Y9.060 E0.5500
G1 X17.450 Y9.060 E0.5707
G1 X19.060 Y3.050 E0.8811
G1 X19.060 Y1.505 E0.9582
G1 X17.036 Y9.060 E1.3484
G1 X16.621 Y9.060 E1.3691
G1 X19.060 Y-0.041 E1.8391
G1 X19.060 Y-1.586 E1.9162
G1 X16.207 Y9.060 E2.4661
G1 X15.793 Y9.060 E2.4868
G1 X19.060 Y-3.132 E3.1165
G1 X19.060 Y-4.677 E3.1936
G1 X15.379 Y9.060 E3.9031
G1 X14.965 Y9.060 E3.9237
G1 X19.060 Y-6.223 E4.7131
G1 X19.060 Y-7.768 E4.7902
G1 X14.551 Y9.060 E5.6594
G1 X14.137 Y9.060 E5.6800
G1 X18.992 Y-9.060 E6.6159
G1 X18.578 Y-9.060 E6.6366
G1 X13.723 Y9.060 E7.5725
G1 X13.309 Y9.060 E7.5932
G1 X18.164 Y-9.060 E8.5291
G1 X17.750 Y-9.060 E8.5497
G1 X12.894 Y9.060 E9.4856
G1 X12.480 Y9.060 E9.5063
G1 X17.336 Y-9.060 E10.4422
G1 X16.922 Y-9.060 E10.4628
G1 X12.066 Y9.060 E11.3987
G1 X11.652 Y9.060 E11.4194
G1 X16.507 Y-9.060 E12.3553
G1 X16.093 Y-9.060 E12.3760
G1 X11.238 Y9.060 E13.3119
G1 X10.824 Y9.060 E13.3325
G1 X15.679 Y-9.060 E14.2684
G1 X15.265 Y-9.060 E14.2891
G1 X10.410 Y9.060 E15.2250
G1 X9.996 Y9.060 E15.2456
G1 X14.851 Y-9.060 E16.1815
G1 X14.437 Y-9.060 E16.2022
G1 X9.582 Y9.060 E17.1381
G1 X9.167 Y9.060 E17.1588
G1 X14.023 Y-9.060 E18.0947
G1 X13.609 Y-9.060 E18.1153
G1 X8.753 Y9.060 E19.0512
G1 X8.339 Y9.060 E19.0719
G1 X13.195 Y-9.060 E20.0078
G1 X12.780 Y-9.060 E20.0284
G1 X7.925 Y9.060 E20.9643
G1 X7.511 Y9.060 E20.9850
G1 X12.366 Y-9.060 E21.9209
G1 X11.952 Y-9.060 E21.9416
G1 X7.097 Y9.060 E22.8775
G1 X6.683 Y9.060 E22.8981
G1 X11.538 Y-9.060 E23.8340
G1 X11.124 Y-9.060 E23.8547
G1 X6.269 Y9.060 E24.7906
G1 X5.855 Y9.060 E24.8112
G1 X10.710 Y-9.060 E25.7471
G1 X10.296 Y-9.060 E25.7678
G1 X5.441 Y9.060 E26.7037
G1 X5.026 Y9.060 E26.7244
G1 X9.882 Y-9.060 E27.6603
G1 X9.468 Y-9.060 E27.6809
G1 X4.612 Y9.060 E28.6168
G1 X4.198 Y9.060 E28.6375
G1 X9.053 Y-9.060 E29.5734
G1 X8.639 Y-9.060 E29.5940
G1 X3.784 Y9.060 E30.5299
G1 X3.370 Y9.060 E30.5506
G1 X8.225 Y-9.060 E31.4865
G1 X7.811 Y-9.060 E31.5072
G1 X2.956 Y9.060 E32.4431
G1 X2.542 Y9.060 E32.4637
G1 X7.397 Y-9.060 E33.3996
G1 X6.983 Y-9.060 E33.4203
G1 X2.128 Y9.060 E34.3562
G1 X1.714 Y9.060 E34.3768
G1 X6.569 Y-9.060 E35.3127
G1 X6.155 Y-9.060 E35.3334
G1 X1.299 Y9.060 E36.2693
G1 X0.885 Y9.060 E36.2900
G1 X5.741 Y-9.060 E37.2259
G1 X5.326 Y-9.060 E37.2465
G1 X0.471 Y9.060 E38.1824
G1 X0.057 Y9.060 E38.2031
G1 X4.912 Y-9.060 E39.1390
G1 X4.498 Y-9.060 E39.1597
G1 X-0.357 Y9.060 E40.0956
G1 X-0.771 Y9.060 E40.1162
G1 X4.084 Y-9.060 E41.0521
G1 X3.670 Y-9.060 E41.0728
G1 X-1.185 Y9.060 E42.0087
G1 X-1.599 Y9.060 E42.0293
G1 X3.256 Y-9.060 E42.9652
G1 X2.842 Y-9.060 E42.9859
G1 X-2.013 Y9.060 E43.9218
G1 X-2.428 Y9.060 E43.9425
G1 X2.428 Y-9.060 E44.8784
G1 X2.014 Y-9.060 E44.8990
G1 X-2.842 Y9.060 E45.8349
G1 X-3.256 Y9.060 E45.8556
G1 X1.599 Y-9.060 E46.7915
G1 X1.185 Y-9.060 E46.8121
G1 X-3.670 Y9.060 E47.7480
G1 X-4.084 Y9.060 E47.7687
G1 X0.771 Y-9.060 E48.7046
G1 X0.357 Y-9.060 E48.7253
G1 X-4.498 Y9.060 E49.6612
G1 X-4.912 Y9.060 E49.6818
G1 X-0.057 Y-9.060 E50.6177
G1 X-0.471 Y-9.060 E50.6384
G1 X-5.326 Y9.060 E51.5743
G1 X-5.740 Y9.060 E51.5949
G1 X-0.885 Y-9.060 E52.5308
G1 X-1.299 Y-9.060 E52.5515
G1 X-6.155 Y9.060 E53.4874
G1 X-6.569 Y9.060 E53.5081
G1 X-1.713 Y-9.060 E54.4440
G1 X-2.128 Y-9.060 E54.4646
G1 X-6.983 Y9.060 E55.4005
G1 X-7.397 Y9.060 E55.4212
G1 X-2.542 Y-9.060 E56.3571
G1 X-2.956 Y-9.060 E56.3777
G1 X-7.811 Y9.060 E57.3136
G1 X-8.225 Y9.060 E57.3343
G1 X-3.370 Y-9.060 E58.2702
G1 X-3.784 Y-9.060 E58.2909
G1 X-8.639 Y9.060 E59.2268
G1 X-9.053 Y9.060 E59.2474
G1 X-4.198 Y-9.060 E60.1833
G1 X-4.612 Y-9.060 E60.2040
G1 X-9.467 Y9.060 E61.1399
G1 X-9.882 Y9.060 E61.1605
G1 X-5.026 Y-9.060 E62.0964
G1 X-5.440 Y-9.060 E62.1171
G1 X-10.296 Y9.060 E63.0530
G1 X-10.710 Y9.060 E63.0737
G1 X-5.855 Y-9.060 E64.0096
G1 X-6.269 Y-9.060 E64.0302
G1 X-11.124 Y9.060 E64.9661
G1 X-11.538 Y9.060 E64.9868
G1 X-6.683 Y-9.060 E65.9227
G1 X-7.097 Y-9.060 E65.9433
G1 X-11.952 Y9.060 E66.8792
G1 X-12.366 Y9.060 E66.8999
G1 X-7.511 Y-9.060 E67.8358
G1 X-7.925 Y-9.060 E67.8565
G1 X-12.780 Y9.060 E68.7924
G1 X-13.194 Y9.060 E68.8130
G1 X-8.339 Y-9.060 E69.7489
G1 X-8.753 Y-9.060 E69.7696
G1 X-13.609 Y9.060 E70.7055
G1 X-14.023 Y9.060 E70.7261
G1 X-9.167 Y-9.060 E71.6620
G1 X-9.582 Y-9.060 E71.6827
G1 X-14.437 Y9.060 E72.6186
G1 X-14.851 Y9.060 E72.6393
G1 X-9.996 Y-9.060 E73.5752
G1 X-10.410 Y-9.060 E73.5958
G1 X-15.265 Y9.060 E74.5317
G1 X-15.679 Y9.060 E74.5524
G1 X-10.824 Y-9.060 E75.4883
G1 X-11.238 Y-9.060 E75.5090
G1 X-16.093 Y9.060 E76.4449
G1 X-16.507 Y9.060 E76.4655
G1 X-11.652 Y-9.060 E77.4014
G1 X-12.066 Y-9.060 E77.4221
G1 X-16.921 Y9.060 E78.3580
G1 X-17.336 Y9.060 E78.3786
G1 X-12.480 Y-9.060 E79.3145
G1 X-12.894 Y-9.060 E79.3352
G1 X-17.750 Y9.060 E80.2711
G1 X-18.164 Y9.060 E80.2918
G1 X-13.309 Y-9.060 E81.2277
G1 X-13.723 Y-9.060 E81.2483
G1 X-18.578 Y9.060 E82.1842
G1 X-18.992 Y9.060 E82.2049
G1 X-14.137 Y-9.060 E83.1408
G1 X-14.551 Y-9.060 E83.1614
G1 X-19.060 Y7.768 E84.0306
G1 X-19.060 Y6.223 E84.1077
G1 X-14.965 Y-9.060 E84.8971
G1 X-15.379 Y-9.060 E84.9177
G1 X-19.060 Y4.677 E85.6273
G1 X-19.060 Y3.132 E85.7044
G1 X-15.793 Y-9.060 E86.3341
G1 X-16.207 Y-9.060 E86.3547
G1 X-19.060 Y1.586 E86.9046
G1 X-19.060 Y0.041 E86.9817
G1 X-16.621 Y-9.060 E87.4518
G1 X-17.036 Y-9.060 E87.4725
G1 X-19.060 Y-1.505 E87.8627
G1 X-19.060 Y-3.050 E87.9398
G1 X-17.450 Y-9.060 E88.2502
G1 X-17.864 Y-9.060 E88.2709
G1 X-19.060 Y-4.596 E88.5015
G1 X-19.060 Y-6.141 E88.5786
G1 X-18.278 Y-9.060 E88.7293
G1 X-18.692 Y-9.060 E88.7500
G1 X-19.060 Y-7.687 E88.8209
G92 E0
G1 E-1.0000 F1800
; layer 15, Z = 2.980
; inner perimeter
G1 X-19.400 Y-9.400 F4800
G1 Z2.980 F1000
G1 E0.0000 F1800
G92 E0
G1 X19.400 Y-9.400 E1.9357 F2100
G1 X19.400 Y9.400 E2.8737
G1 X-19.400 Y9.400 E4.8094
G1 X-19.400 Y-9.400 E5.7474
; outer perimeter
G1 X-19.800 Y-9.800 F4800
G92 E0
G1 X19.800 Y-9.800 E1.9757 F1200
G1 X19.800 Y9.800 E2.9535
G1 X-19.800 Y9.800 E4.9292
G1 X-19.800 Y-9.800 E5.9070
; solid layer
G1 X-18.659 Y9.060 F4800
G92 E0
G1 X-19.060 Y8.659 E0.0283 F1200
G1 X-19.060 Y8.093 E0.0565
G1 X-18.093 Y9.060 E0.1248
G1 X-17.527 Y9.060 E0.1530
G1 X-19.060 Y7.527 E0.2611
G1 X-19.060 Y6.962 E0.2894
G1 X-16.962 Y9.060 E0.4374
G1 X-16.396 Y9.060 E0.4657
G1 X-19.060 Y6.396 E0.6536
G1 X-19.060 Y5.830 E0.6818
G1 X-15.830 Y9.060 E0.9097
G1 X-15.264 Y9.060 E0.9380
G1 X-19.060 Y5.264 E1.2057
G1 X-19.060 Y4.699 E1.2340
G1 X-14.699 Y9.060 E1.5417
G1 X-14.133 Y9.060 E1.5699
G1 X-19.060 Y4.133 E1.9175
G1 X-19.060 Y3.567 E1.9457
G1 X-13.567 Y9.060 E2.3333
G1 X-13.002 Y9.060 E2.3615
G1 X-19.060 Y3.002 E2.7889
G1 X-19.060 Y2.436 E2.8172
G1 X-12.436 Y9.060 E3.2845
G1 X-11.870 Y9.060 E3.3127
G1 X-19.060 Y1.870 E3.8200
G1 X-19.060 Y1.305 E3.8482
G1 X-11.305 Y9.060 E4.3954
G1 X-10.739 Y9.060 E4.4236
G1 X-19.060 Y0.739 E5.0107
G1 X-19.060 Y0.173 E5.0390
G1 X-10.173 Y9.060 E5.6660
G1 X-9.608 Y9.060 E5.6942
G1 X-19.060 Y-0.392 E6.3611
G1 X-19.060 Y-0.958 E6.3893
G1 X-9.042 Y9.060 E7.0961
G1 X-8.476 Y9.060 E7.1244
G1 X-19.060 Y-1.524 E7.8711
G1 X-19.060 Y-2.089 E7.8993
G1 X-7.911 Y9.060 E8.6860
G1 X-7.345 Y9.060 E8.7142
G1 X-19.060 Y-2.655 E9.5408
G1 X-19.060 Y-3.221 E9.5690
G1 X-6.779 Y9.060 E10.4355
G1 X-6.213 Y9.060 E10.4637
G1 X-19.060 Y-3.787 E11.3701
G1 X-19.060 Y-4.352 E11.3983
G1 X-5.648 Y9.060 E12.3446
G1 X-5.082 Y9.060 E12.3728
G1 X-19.060 Y-4.918 E13.3591
G1 X-19.060 Y-5.484 E13.3873
G1 X-4.516 Y9.060 E14.4134
G1 X-3.951 Y9.060 E14.4416
G1 X-19.060 Y-6.049 E15.5077
G1 X-19.060 Y-6.615 E15.5359
G1 X-3.385 Y9.060 E16.6418
G1 X-2.819 Y9.060 E16.6701
G1 X-19.060 Y-7.181 E17.8159
G1 X-19.060 Y-7.746 E17.8441
G1 X-2.254 Y9.060 E19.0299
G1 X-1.688 Y9.060 E19.0581
G1 X-19.060 Y-8.312 E20.2838
G1 X-19.060 Y-8.878 E20.3121
G1 X-1.122 Y9.060 E21.5777
G1 X-0.557 Y9.060 E21.6059
G1 X-18.677 Y-9.060 E22.8843
G1 X-18.111 Y-9.060 E22.9126
G1 X0.009 Y9.060 E24.1910
G1 X0.575 Y9.060 E24.2192
G1 X-17.545 Y-9.060 E25.4977
G1 X-16.980 Y-9.060 E25.5259
G1 X1.140 Y9.060 E26.8044
G1 X1.706 Y9.060 E26.8326
G1 X-16.414 Y-9.060 E28.1111
G1 X-15.848 Y-9.060 E28.1393
G1 X2.272 Y9.060 E29.4178
G1 X2.837 Y9.060 E29.4460
G1 X-15.283 Y-9.060 E30.7245
G1 X-14.717 Y-9.060 E30.7527
G1 X3.403 Y9.060 E32.0311
G1 X3.969 Y9.060 E32.0594
G1 X-14.151 Y-9.060 E33.3378
G1 X-13.585 Y-9.060 E33.3660
G1 X4.535 Y9.060 E34.6445
G1 X5.100 Y9.060 E34.6727
G1 X-13.020 Y-9.060 E35.9512
G1 X-12.454 Y-9.060 E35.9794
G1 X5.666 Y9.060 E37.2579
G1 X6.232 Y9.060 E37.2861
G1 X-11.888 Y-9.060 E38.5646
G1 X-11.323 Y-9.060 E38.5928
G1 X6.797 Y9.060 E39.8713
G1 X7.363 Y9.060 E39.8995
G1 X-10.757 Y-9.060 E41.1779
G1 X-10.191 Y-9.060 E41.2062
G1 X7.929 Y9.060 E42.4846
G1 X8.494 Y9.060 E42.5128
G1 X-9.626 Y-9.060 E43.7913
G1 X-9.060 Y-9.060 E43.8195
G1 X9.060 Y9.060 E45.0980
G1 X9.626 Y9.060 E45.1262
G1 X-8.494 Y-9.060 E46.4047
G1 X-7.929 Y-9.060 E46.4329
G1 X10.191 Y9.060 E47.7114
G1 X10.757 Y9.060 E47.7396
G1 X-7.363 Y-9.060 E49.0181
G1 X-6.797 Y-9.060 E49.0463
G1 X11.323 Y9.060 E50.3247
G1 X11.888 Y9.060 E50.3530
G1 X-6.232 Y-9.060 E51.6314
G1 X-5.666 Y-9.060 E51.6597
G1 X12.454 Y9.060 E52.9381
G1 X13.020 Y9.060 E52.9663
G1 X-5.100 Y-9.060 E54.2448
G1 X-4.535 Y-9.060 E54.2730
G1 X13.585 Y9.060 E55.5515
G1 X14.151 Y9.060 E55.5797
G1 X-3.969 Y-9.060 E56.8582
G1 X-3.403 Y-9.060 E56.8864
G1 X14.717 Y9.060 E58.1649
G1 X15.283 Y9.060 E58.1931
G1 X-2.837 Y-9.060 E59.4715
G1 X-2.272 Y-9.060 E59.4998
G1 X15.848 Y9.060 E60.7782
G1 X16.414 Y9.060 E60.8065
G1 X-1.706 Y-9.060 E62.0849
G1 X-1.140 Y-9.060 E62.1131
G1 X16.980 Y9.060 E63.3916
G1 X17.545 Y9.060 E63.4198
G1 X-0.575 Y-9.060 E64.6983
G1 X-0.009 Y-9.060 E64.7265
G1 X18.111 Y9.060 E66.0050
G1 X18.677 Y9.060 E66.0332
G1 X0.557 Y-9.060 E67.3117
